packages/ui-solid/icons/notifications_28.svg

<svg width="28" height="28" viewBox="0 0 28 28" fill="none" xmlns="http://www.w3.org/2000/svg">
<path fill-rule="evenodd" clip-rule="evenodd" d="M13.9948 4.84533C13.8235 4.84533 13.6577 4.85019 13.4972 4.85953C11.3647 4.9837 10.101 5.90375 9.34657 6.96613C8.56499 8.06669 8.29654 9.37334 8.29654 10.2347V13.8107C8.29654 13.855 8.29657 13.8987 8.29659 13.9418C8.29707 14.8171 8.29743 15.4595 8.09367 16.0645C8.05207 16.1881 8.00426 16.3094 7.95043 16.4282C7.68683 17.0096 7.24846 17.4791 6.65112 18.119C6.6217 18.1505 6.59188 18.1824 6.56169 18.2148C5.97043 18.8489 5.58849 19.261 5.36013 19.5773C5.31304 19.6426 5.2793 19.6948 5.25523 19.7354C5.30136 19.7455 5.36253 19.7564 5.44236 19.7665C5.82948 19.8152 6.39136 19.817 7.2583 19.817H20.7312C21.5982 19.817 22.16 19.8152 22.5472 19.7665C22.627 19.7564 22.6882 19.7455 22.7343 19.7354C22.7102 19.6948 22.6765 19.6426 22.6294 19.5773C22.401 19.261 22.0191 18.8489 21.4278 18.2148C21.3976 18.1824 21.3678 18.1505 21.3384 18.119C20.7411 17.4791 20.3027 17.0096 20.0391 16.4282C19.9853 16.3094 19.9375 16.1881 19.8959 16.0645C19.6921 15.4595 19.6925 14.8172 19.6929 13.9418C19.693 13.8987 19.693 13.855 19.693 13.8107V10.2347C19.693 9.37334 19.4245 8.06669 18.643 6.96613C17.8885 5.90375 16.6249 4.9837 14.4923 4.85953C14.3318 4.85019 14.166 4.84533 13.9948 4.84533ZM22.8582 19.6983C22.859 19.6978 22.8594 19.6976 22.8595 19.6976L22.8582 19.6983ZM5.19785 19.8514C5.19765 19.8522 5.19752 19.8527 5.19751 19.8527L5.19785 19.8514ZM13.3926 3.06257C13.5888 3.05115 13.7895 3.04533 13.9948 3.04533C14.2 3.04533 14.4007 3.05115 14.5969 3.06257C17.2856 3.21913 19.0461 4.42506 20.1105 5.92391C21.1478 7.38456 21.493 9.07437 21.493 10.2347V13.8107C21.493 14.8729 21.5039 15.1996 21.6017 15.49C21.624 15.5562 21.6496 15.6213 21.6785 15.6849C21.805 15.964 22.0198 16.2104 22.7443 16.9872L22.7859 17.0319C23.3238 17.6086 23.7859 18.1041 24.0889 18.5238C24.3827 18.9309 24.7178 19.517 24.5402 20.2001C24.4907 20.3909 24.4116 20.5728 24.3059 20.7392C23.9273 21.335 23.2702 21.4896 22.7721 21.5524C22.2585 21.617 21.5809 21.617 20.7923 21.617H7.19723C6.40864 21.617 5.73106 21.617 5.21744 21.5524C4.71935 21.4896 4.06222 21.335 3.68367 20.7392C3.57795 20.5728 3.49888 20.3909 3.44929 20.2001C3.27175 19.517 3.60681 18.9309 3.90063 18.5238C4.20362 18.1041 4.66577 17.6086 5.20364 17.0318L5.24527 16.9872C5.96971 16.2104 6.18452 15.964 6.31105 15.6849C6.3399 15.6213 6.36552 15.5562 6.38782 15.49C6.48562 15.1996 6.49654 14.8729 6.49654 13.8107V10.2347C6.49654 9.07437 6.84169 7.38456 7.87899 5.92391C8.94342 4.42506 10.704 3.21913 13.3926 3.06257Z" fill="#007AFF"/>
<path d="M13.9948 26.1398C15.0859 26.1398 16.0138 25.3119 16.3552 24.1575C16.5107 23.6316 16.0507 23.1777 15.5023 23.1777H12.4873C11.9389 23.1777 11.4788 23.6316 11.6344 24.1575C11.9758 25.3119 12.9037 26.1398 13.9948 26.1398Z" fill="#007AFF"/>
</svg>

<svg xmlns="http://www.w3.org/2000/svg" width="28" height="28" fill="none"><path fill="currentColor" fill-rule="evenodd" d="M13.995 4.845q-.256 0-.498.015c-2.132.124-3.396 1.044-4.15 2.106-.782 1.1-1.05 2.407-1.05 3.269v3.706c0 .876 0 1.518-.203 2.123a4 4 0 0 1-.144.364c-.263.582-.702 1.051-1.299 1.691l-.09.096c-.59.634-.973 1.046-1.2 1.362q-.071.098-.106.158.069.015.187.032c.387.048.95.05 1.816.05h13.473c.867 0 1.429-.002 1.816-.05q.119-.015.187-.032a2 2 0 0 0-.105-.158c-.228-.316-.61-.728-1.201-1.362l-.09-.096c-.597-.64-1.035-1.11-1.299-1.69a4 4 0 0 1-.143-.364c-.204-.606-.204-1.248-.203-2.123v-3.707c0-.862-.269-2.168-1.05-3.269-.755-1.062-2.018-1.982-4.15-2.106a9 9 0 0 0-.498-.015m8.863 14.853h.002zm-17.66.153v.002zm8.195-16.788a10 10 0 0 1 1.204 0c2.689.156 4.45 1.362 5.513 2.86 1.038 1.462 1.383 3.151 1.383 4.312v3.576c0 1.062.01 1.389.109 1.679q.033.099.076.195c.127.279.342.525 1.066 1.302l.042.045c.538.577 1 1.072 1.303 1.492.294.407.629.993.451 1.676-.05.19-.128.373-.234.54-.379.595-1.036.75-1.534.812-.513.065-1.191.065-1.98.065H7.197c-.788 0-1.466 0-1.98-.065-.498-.062-1.155-.217-1.533-.813a1.9 1.9 0 0 1-.235-.539c-.177-.683.158-1.27.452-1.676.303-.42.765-.915 1.303-1.492l.041-.045c.725-.777.94-1.023 1.066-1.302q.044-.096.077-.195c.098-.29.109-.617.109-1.68v-3.575c0-1.16.345-2.85 1.382-4.311 1.064-1.499 2.825-2.705 5.514-2.861" clip-rule="evenodd"/><path fill="currentColor" d="M13.995 26.14c1.09 0 2.019-.828 2.36-1.983.156-.525-.304-.98-.853-.98h-3.015c-.548 0-1.008.455-.853.98.342 1.155 1.27 1.983 2.36 1.983"/></svg>
